X:1
T:Title
%%score { ( 1 4 ) | ( 2 3 ) }
L:1/8
M:6/8
K:Bb
V:1 treble nm="Grand Piano"
V:4 treble 
V:2 bass 
V:3 bass 
V:1
 z3 z2[Q:1/4=84] [DF] | [Fd]>[Ec][DB] [DF]2 [DF] | [EG]<[GB][EG] [DF]2 [B,D]/[CE]/ | %3
 [DF]>[DB][DB] [=EB][EA][EB] | [Fc]3- [Fc]2 [DB]/[Ec]/ | [Fd]>[Fd][Fd] [DB]2 [FB]/[FA]/ | %6
 [EG]<[GB][EG] [DF]2 [B,D]/E/ | [B,DF]>[B,DB][B,FB] [CFA][DFB][EFc] | %8
[M:5/8] [B,DFB]-[B,DFB]- [B,DFB]3 |[M:1/8] A/B/ |[M:3/4] c6 | [Fd]6 | [Ge]>[Ge] [Ge] [GB]2 [Gc] | %13
 [Fd]4- [Fd][DF] | [Fd]>[Fd] [Fd][Fd] [Fc][FB] | [GB][Gc] [GB] G2 G | F>B BA Bc | %17
[M:5/8] [DFB]-[DFB]- [DFB]3 |] %18
V:2
 z3 z2 [B,,B,] | [B,,B,]>[B,,B,][B,,B,] [B,,B,]2 [B,,B,] | [E,B,]<[E,B,][E,B,] [B,,B,]2 [B,,F,] | %3
 [B,,B,]>[B,,B,][B,,B,] [G,C]2 [C,C] | [F,A,]3- [F,A,]2 [B,,B,]/[B,,B,]/ | %5
 [B,,B,]>[B,,B,][B,,B,] [B,,B,]2 [D,B,]/[D,B,]/ | [E,B,]<[E,B,][E,B,] [B,,B,]2 z/ C/ | %7
 B,,>B,,D, F,F,F, |[M:5/8] B,,-B,,- B,,3 |[M:1/8] C/D/ |[M:3/4] E->[F,E-] [F,E-] [F,E]2 D/E/ | %11
 [B,,B,]>D, F, B,2 [B,,B,] | [E,B,]>[E,B,] [E,B,] [E,B,]2 [E,B,] | [B,,B,]4- [B,,B,][B,,B,] | %14
 [B,,B,]>[B,,B,] [B,,B,][B,,B,] [C,A,][D,B,] | [E,E][E,E] [E,E] [E,B,E]2 [E,B,E] | %16
 [F,B,D]>[F,B,D] [F,DF][F,CF] [F,DF][F,EF] |[M:5/8] [B,,B,]-[B,,B,]- [B,,B,]3 |] %18
V:3
 x6 | x6 | x6 | x6 | x6 | x6 | z3 z2 [B,,F,] | x6 |[M:5/8] x5 |[M:1/8] x |[M:3/4] [F,A,]2 z2 z2 | %11
 x6 | x6 | x6 | x6 | x6 | x6 |[M:5/8] x5 |] %18
V:4
 x6 | x6 | x6 | x6 | x6 | x6 | x6 | x6 |[M:5/8] x5 |[M:1/8] x |[M:3/4] z z/ A,/ A, A,2 B/c/ | %11
 z z/ B,/ .B,2 z [_Ad] | x6 | x6 | x6 | x6 | x6 |[M:5/8] x5 |] %18

